Task 1/images/logo.svg

<svg fill="none" height="23" viewBox="0 0 147 23" width="147" xmlns="http://www.w3.org/2000/svg"><path d="m.534.299999h2.294v19.716001h12.152v1.984h-14.446zm37.1944 15.903001h-12.09l-2.604 5.797h-2.387l9.92-21.700001h2.263l9.92 21.700001h-2.418zm-.837-1.86-5.208-11.656-5.208 11.656zm20.7017 7.843c-1.612 0-3.162-.2583-4.65-.775-1.4673-.5167-2.604-1.1987-3.41-2.046l.899-1.767c.7854.7853 1.829 1.426 3.131 1.922 1.302.4753 2.6454.713 4.03.713 1.9427 0 3.3997-.3513 4.371-1.054.9714-.7233 1.457-1.6533 1.457-2.79 0-.868-.2686-1.5603-.806-2.077-.5166-.5167-1.1573-.9093-1.922-1.178-.7646-.2893-1.829-.5993-3.193-.93-1.6326-.4133-2.9346-.806-3.906-1.178-.9713-.3927-1.8083-.9817-2.511-1.767-.682-.78533-1.023-1.84967-1.023-3.193 0-1.09533.2894-2.08733.868-2.976.5787-.90933 1.4674-1.63267 2.666-2.17 1.1987-.537334 2.6867-.806001 4.464-.806001 1.24 0 2.449.175667 3.627.527001 1.1987.330666 2.232.79567 3.1 1.395l-.775 1.829c-.9093-.59933-1.8806-1.04367-2.914-1.333-1.0333-.31-2.046-.465-3.038-.465-1.9013 0-3.3376.372-4.309 1.116-.9506.72333-1.426 1.66367-1.426 2.821 0 .868.2584 1.57067.775 2.108.5374.51667 1.1987.91967 1.984 1.209.806.26867 1.8807.56833 3.224.899 1.5914.3927 2.8727.7853 3.844 1.178.992.372 1.829.9507 2.511 1.736.682.7647 1.023 1.8083 1.023 3.131 0 1.0953-.2996 2.0977-.899 3.007-.5786.8887-1.4776 1.6017-2.697 2.139-1.2193.5167-2.7176.775-4.495.775zm36.4943-21.886001v21.700001h-2.263v-10.013h-13.578v10.013h-2.294v-21.700001h2.294v9.672001h13.578v-9.672001zm27.6976 19.716001v1.984h-15.345v-21.700001h14.88v1.984001h-12.586v7.719h11.222v1.953h-11.222v8.06zm16.645 2.17c-1.612 0-3.162-.2583-4.65-.775-1.467-.5167-2.604-1.1987-3.41-2.046l.899-1.767c.786.7853 1.829 1.426 3.131 1.922 1.302.4753 2.646.713 4.03.713 1.943 0 3.4-.3513 4.371-1.054.972-.7233 1.457-1.6533 1.457-2.79 0-.868-.268-1.5603-.806-2.077-.516-.5167-1.157-.9093-1.922-1.178-.764-.2893-1.829-.5993-3.193-.93-1.632-.4133-2.934-.806-3.906-1.178-.971-.3927-1.808-.9817-2.511-1.767-.682-.78533-1.023-1.84967-1.023-3.193 0-1.09533.29-2.08733.868-2.976.579-.90933 1.468-1.63267 2.666-2.17 1.199-.537334 2.687-.806001 4.464-.806001 1.24 0 2.449.175667 3.627.527001 1.199.330666 2.232.79567 3.1 1.395l-.775 1.829c-.909-.59933-1.88-1.04367-2.914-1.333-1.033-.31-2.046-.465-3.038-.465-1.901 0-3.337.372-4.309 1.116-.95.72333-1.426 1.66367-1.426 2.821 0 .868.259 1.57067.775 2.108.538.51667 1.199.91967 1.984 1.209.806.26867 1.881.56833 3.224.899 1.592.3927 2.873.7853 3.844 1.178.992.372 1.829.9507 2.511 1.736.682.7647 1.023 1.8083 1.023 3.131 0 1.0953-.299 2.0977-.899 3.007-.578.8887-1.477 1.6017-2.697 2.139-1.219.5167-2.717.775-4.495.775z" fill="#fff"/></svg>

<svg width="147" height="23" viewBox="0 0 147 23" fill="none" xmlns="http://www.w3.org/2000/svg">
<path d="M0.534 0.299999H2.828V20.016H14.98V22H0.534V0.299999ZM37.7284 16.203H25.6384L23.0344 22H20.6474L30.5674 0.299999H32.8304L42.7504 22H40.3324L37.7284 16.203ZM36.8914 14.343L31.6834 2.687L26.4754 14.343H36.8914ZM57.5931 22.186C55.9811 22.186 54.4311 21.9277 52.9431 21.411C51.4758 20.8943 50.3391 20.2123 49.5331 19.365L50.4321 17.598C51.2175 18.3833 52.2611 19.024 53.5631 19.52C54.8651 19.9953 56.2085 20.233 57.5931 20.233C59.5358 20.233 60.9928 19.8817 61.9641 19.179C62.9355 18.4557 63.4211 17.5257 63.4211 16.389C63.4211 15.521 63.1525 14.8287 62.6151 14.312C62.0985 13.7953 61.4578 13.4027 60.6931 13.134C59.9285 12.8447 58.8641 12.5347 57.5001 12.204C55.8675 11.7907 54.5655 11.398 53.5941 11.026C52.6228 10.6333 51.7858 10.0443 51.0831 9.259C50.4011 8.47367 50.0601 7.40933 50.0601 6.066C50.0601 4.97067 50.3495 3.97867 50.9281 3.09C51.5068 2.18067 52.3955 1.45733 53.5941 0.92C54.7928 0.382666 56.2808 0.113999 58.0581 0.113999C59.2981 0.113999 60.5071 0.289666 61.6851 0.641C62.8838 0.971666 63.9171 1.43667 64.7851 2.036L64.0101 3.865C63.1008 3.26567 62.1295 2.82133 61.0961 2.532C60.0628 2.222 59.0501 2.067 58.0581 2.067C56.1568 2.067 54.7205 2.439 53.7491 3.183C52.7985 3.90633 52.3231 4.84667 52.3231 6.004C52.3231 6.872 52.5815 7.57467 53.0981 8.112C53.6355 8.62867 54.2968 9.03167 55.0821 9.321C55.8881 9.58967 56.9628 9.88933 58.3061 10.22C59.8975 10.6127 61.1788 11.0053 62.1501 11.398C63.1421 11.77 63.9791 12.3487 64.6611 13.134C65.3431 13.8987 65.6841 14.9423 65.6841 16.265C65.6841 17.3603 65.3845 18.3627 64.7851 19.272C64.2065 20.1607 63.3075 20.8737 62.0881 21.411C60.8688 21.9277 59.3705 22.186 57.5931 22.186ZM94.0874 0.299999V22H91.8244V11.987H78.2464V22H75.9524V0.299999H78.2464V9.972H91.8244V0.299999H94.0874ZM121.785 20.016V22H106.44V0.299999H121.32V2.284H108.734V10.003H119.956V11.956H108.734V20.016H121.785ZM138.43 22.186C136.818 22.186 135.268 21.9277 133.78 21.411C132.313 20.8943 131.176 20.2123 130.37 19.365L131.269 17.598C132.055 18.3833 133.098 19.024 134.4 19.52C135.702 19.9953 137.046 20.233 138.43 20.233C140.373 20.233 141.83 19.8817 142.801 19.179C143.773 18.4557 144.258 17.5257 144.258 16.389C144.258 15.521 143.99 14.8287 143.452 14.312C142.936 13.7953 142.295 13.4027 141.53 13.134C140.766 12.8447 139.701 12.5347 138.337 12.204C136.705 11.7907 135.403 11.398 134.431 11.026C133.46 10.6333 132.623 10.0443 131.92 9.259C131.238 8.47367 130.897 7.40933 130.897 6.066C130.897 4.97067 131.187 3.97867 131.765 3.09C132.344 2.18067 133.233 1.45733 134.431 0.92C135.63 0.382666 137.118 0.113999 138.895 0.113999C140.135 0.113999 141.344 0.289666 142.522 0.641C143.721 0.971666 144.754 1.43667 145.622 2.036L144.847 3.865C143.938 3.26567 142.967 2.82133 141.933 2.532C140.9 2.222 139.887 2.067 138.895 2.067C136.994 2.067 135.558 2.439 134.586 3.183C133.636 3.90633 133.16 4.84667 133.16 6.004C133.16 6.872 133.419 7.57467 133.935 8.112C134.473 8.62867 135.134 9.03167 135.919 9.321C136.725 9.58967 137.8 9.88933 139.143 10.22C140.735 10.6127 142.016 11.0053 142.987 11.398C143.979 11.77 144.816 12.3487 145.498 13.134C146.18 13.8987 146.521 14.9423 146.521 16.265C146.521 17.3603 146.222 18.3627 145.622 19.272C145.044 20.1607 144.145 20.8737 142.925 21.411C141.706 21.9277 140.208 22.186 138.43 22.186Z" fill="white"/>
</svg>
